assets/images/icons/edit.svg

<svg height="18" viewBox="0 0 18 18" width="18" xmlns="http://www.w3.org/2000/svg"><g fill="#232d37"><path d="m14.7272727 11.1763636c0-.4518693.3663125-.8181818.8181818-.8181818.4518694 0 .8181819.3663125.8181819.8181818v4.3690909c0 1.3556081-1.0989375 2.4545455-2.4545455 2.4545455h-11.45454545c-1.35560802 0-2.45454545-1.0989374-2.45454545-2.4545455v-11.45454541c0-1.35560802 1.09893743-2.45454545 2.45454545-2.45454545h4.36909091c.45186934 0 .81818182.36631247.81818182.81818181 0 .45186935-.36631248.81818182-.81818182.81818182h-4.36909091c-.45186934 0-.81818181.36631248-.81818181.81818182v11.45454541c0 .4518694.36631247.8181819.81818181.8181819h11.45454545c.4518693 0 .8181818-.3663125.8181818-.8181819z"/><path d="m6.54545455 9.33890201v2.11564349h2.11564344l7.36363641-7.36363641-2.1156435-2.11564345zm7.94217825-9.0992621 3.2727273 3.27272727c.3195199.31951987.3195199.83756395 0 1.15708382l-8.18181819 8.1818182c-.15343885.1534388-.3615466.2396399-.57854191.2396399h-3.27272727c-.45186934 0-.81818182-.3663125-.81818182-.8181818v-3.2727273c0-.21699531.08620105-.42510306.23963991-.57854191l8.18181818-8.18181818c.3195199-.31951988.8375639-.31951988 1.1570838 0z"/></g></svg>

<?xml version="1.0" encoding="UTF-8"?>
<svg width="18px" height="18px" viewBox="0 0 18 18" version="1.1" xmlns="http://www.w3.org/2000/svg" xmlns:xlink="http://www.w3.org/1999/xlink">
    <title></title>
    <desc></desc>
    <defs></defs>
    <g id="Design" stroke="none" stroke-width="1" fill="none" fill-rule="evenodd">
        <g id="Home-Desktop" transform="translate(-363.000000, -516.000000)" class="fill-layer" fill="#232D37" fill-rule="nonzero">
            <g id="Group-6" transform="translate(363.000000, 516.000000)">
                <path d="M14.7272727,11.1763636 C14.7272727,10.7244943 15.0935852,10.3581818 15.5454545,10.3581818 C15.9973239,10.3581818 16.3636364,10.7244943 16.3636364,11.1763636 L16.3636364,15.5454545 C16.3636364,16.9010626 15.2646989,18 13.9090909,18 L2.45454545,18 C1.09893743,18 0,16.9010626 0,15.5454545 L0,4.09090909 C0,2.73530107 1.09893743,1.63636364 2.45454545,1.63636364 L6.82363636,1.63636364 C7.2755057,1.63636364 7.64181818,2.00267611 7.64181818,2.45454545 C7.64181818,2.9064148 7.2755057,3.27272727 6.82363636,3.27272727 L2.45454545,3.27272727 C2.00267611,3.27272727 1.63636364,3.63903975 1.63636364,4.09090909 L1.63636364,15.5454545 C1.63636364,15.9973239 2.00267611,16.3636364 2.45454545,16.3636364 L13.9090909,16.3636364 C14.3609602,16.3636364 14.7272727,15.9973239 14.7272727,15.5454545 L14.7272727,11.1763636 Z" id="Shape"></path>
                <path d="M6.54545455,9.33890201 L6.54545455,11.4545455 L8.66109799,11.4545455 L16.0247344,4.09090909 L13.9090909,1.97526564 L6.54545455,9.33890201 Z M14.4876328,0.239639906 L17.7603601,3.51236718 C18.07988,3.83188705 18.07988,4.34993113 17.7603601,4.669451 L9.57854191,12.8512692 C9.42510306,13.004708 9.21699531,13.0909091 9,13.0909091 L5.72727273,13.0909091 C5.27540339,13.0909091 4.90909091,12.7245966 4.90909091,12.2727273 L4.90909091,9 C4.90909091,8.78300469 4.99529196,8.57489694 5.14873082,8.42145809 L13.330549,0.239639906 C13.6500689,-0.0798799688 14.1681129,-0.0798799688 14.4876328,0.239639906 Z" id="Shape"></path>
            </g>
        </g>
    </g>
</svg>
